X:1
T:Marche funèbre
T:Marche funèbre
T:Chopin
C:Chopin
%%score { 1 | 2 }
L:1/8
Q:1/4=40
M:4/4
K:C
V:1 treble nm="Piano" snm="Pno."
V:2 bass 
V:1
 (!1!A,2 !3!A,>!2!A, !1!A,4 | A,2 A,>A, A,4) | (A,2 A,>A, A,2 !3!C>B, | %3
{/C} B,>!1!A, !3!A,>!2!A, !1!A,4) | (!1!!3![A,C]2 [A,C]>[A,C] [A,C]2 [CE]>[B,D] | %5
{/E} [B,D]>[A,C] [A,C]>C [A,C]4) |!>(! (!5!AG{/G} F>E E2 C2)!>)! | %7
!>(!!>(! (AG{/G} F>E E2 !2!C2)!>)!!>)! | (A,2 A,>A, A,2 !3!C>B, |{/C} B,>A, A,>A, A,4) | %10
 (!5!a!>(!g{/g} f>e e2 c2)!>)! | (a!>(!g{/g} f>e e2 c2)!>)! | (A2 A>A A2 !3!c>B | %13
 B>A A>A A2)!f! !1!!4![FB]2 |!<(! [Ec]2 (!1!e>f g>!1!a b>c'!<)! | %15
 [c'e']4!>(! [bd']2) z3/2 (!2!!4![df]/!>)! |!<(! [ce]2) (!1!e>^f ^g>!1!a b>c'!<)! | %17
 [ac']4!>(! [^gb]2) z2!>)! |[K:bass]!f! ([G,E]2 [F,D]2 [E,C]4) | ([E,C]2 [D,B,]2 [C,A,]4) | %20
[K:treble]!p! (A,2 A,>A, A,2 C>B, |{/C} B,>A, A,>A, A,2!ff! !3!C>[B,D] | %22
 [CE]2)!<(! (!1!e>f g>!1!a b>c'!<)! | [c'e']4!>(! [bd']2) z3/2 (!2!!4![df]/!>)! | %24
!<(! [ce]2) (!1!e>^f ^g>!1!a b>c'!<)! | [ac']4!>(! [^gb]2) z2!>)! | %26
[K:bass]!f! ([G,E]2 [F,D]2 [E,C]4) | ([E,C]2 [D,B,]2 [C,A,]4) |[K:treble]!p! (A,2 A,>A, A,2 C>B, | %29
!>(!{/C} B,>A, A,>A,!>)! A,2) z2 || (!4!e4 fedc | B2 a2 g4) | (!4!f4 gfed | c2 c'2 g4) | %34
 (!4!e4 fed^c | !3!d^cde fA!5!ed) | (c2 d/c/B/!1!c/ !5!agfG |!>(! d4 c2) z2!>)! | (!4!e4 fedc | %39
 B2 a2 g4) | (!4!f4 gfed | c2 c'2 g4) | (!4!e4 fed^c | !3!d^cde fA!5!ed) | %44
 (c2 d/c/B/!1!c/ !5!agfG |!>(! d4 c2) z2!>)! |: (!3!B4 cBA!1!G |"_Cresc" !2!^F2 !5!e2 d4) | %48
 (!3!c4 dcBA | ^G2 f2 e4) |!f! (!3!e4 fedc | c2 B2) z (B{d} c>B |!>(! B2 A2)!>)! z!<(! (B{/d} c>B | %53
 B2!<)! e2!>(! f2 G2)!>)! |!pp! (!4!e4 fedc | B2 a2 g4) | (!4!f4 gfed | c2 c'2 g4) | (!4!e4 fed^c | %59
 !3!d^cde fA!5!ed) | (c2 d/c/B/!1!c/ !5!agfG |!>(! d4 c2) z2!>)! :| (!1!A,2 !3!A,>!2!A, !1!A,4 | %63
 A,2 A,>A, A,4) | (A,2 A,>A, A,2 !3!C>B, |{/C} B,>!1!A, !3!A,>!2!A, !1!A,4) | %66
 (!1!!3![A,C]2 [A,C]>[A,C] [A,C]2 [CE]>[B,D] |{/E} [B,D]>[A,C] [A,C]>C [A,C]4) | %68
!>(! (!5!AG{/G} F>E E2 C2)!>)! |!>(!!>(! (AG{/G} F>E E2 !2!C2)!>)!!>)! | (A,2 A,>A, A,2 !3!C>B, | %71
{/C} B,>A, A,>A, A,4) | (!5!a!>(!g{/g} f>e e2 c2)!>)! | (a!>(!g{/g} f>e e2 c2)!>)! | %74
 (A2 A>A A2 !3!c>B | B>A A>A A2)!f! !1!!4![FB]2 |!<(! [Ec]2 (!1!e>f g>!1!a b>c'!<)! | %77
 [c'e']4!>(! [bd']2) z3/2 (!2!!4![df]/!>)! |!<(! [ce]2) (!1!e>^f ^g>!1!a b>c'!<)! | %79
 [ac']4!>(! [^gb]2) z2!>)! |[K:bass]!f! ([G,E]2 [F,D]2 [E,C]4) | ([E,C]2 [D,B,]2 [C,A,]4) | %82
[K:treble]!p! (A,2 A,>A, A,2 C>B, |{/C} B,>A, A,>A, A,2!ff! !3!C>[B,D] | %84
 [CE]2)!<(! (!1!e>f g>!1!a b>c'!<)! | [c'e']4!>(! [bd']2) z3/2 (!2!!4![df]/!>)! | %86
!<(! [ce]2) (!1!e>^f ^g>!1!a b>c'!<)! | [ac']4!>(! [^gb]2) z2!>)! | %88
[K:bass]!f! ([G,E]2 [F,D]2 [E,C]4) | ([E,C]2 [D,B,]2 [C,A,]4) |[K:treble]!p! (A,2 A,>A, A,2 C>B, | %91
!>(!{/C} B,>A, A,>A,!>)! A,2) z2 |] %92
V:2
!p! !5!!2![A,,E,]2 !3!!1![C,F,]2 [A,,E,]2 [C,F,]2 | [A,,E,]2 [C,F,]2 [A,,E,]2 [C,F,]2 | %2
 [A,,E,]2 [C,F,]2 [A,,E,]2 [C,F,]2 | [A,,E,]2 [C,F,]2 [A,,E,]2 [C,F,]2 | %4
 [A,,E,]2 [C,F,]2 [A,,E,]2 [C,F,]2 | [A,,E,]2 [C,F,]2 [A,,E,]2 [C,F,]2 | %6
 [A,,E,]2 [C,F,]2 [A,,E,]2 [C,F,]2 | [A,,E,]2 [C,F,]2 [A,,E,]2 [C,F,]2 | %8
 [A,,E,]2 [C,F,]2 [A,,E,]2 [C,F,]2 | [A,,E,]2 [C,F,]2 [A,,E,]2 [C,F,]2 | %10
 [A,,E,]2 [C,F,]2 [A,,E,]2 [C,F,]2 | [A,,E,]2 [C,F,]2 [A,,E,]2 [C,F,]2 | %12
 [A,,E,]2 [C,F,]2 [A,,E,]2 [C,F,]2 | [A,,E,]2 [C,F,]2 [A,,E,]2 u!1!G,,2 | %14
 C,,2 [C,E,G,]2 [C,E,G,]2 [C,E,G,]2 | G,,2 [G,CE]2 [G,B,D]2 z2 | %16
 A,,,2 [A,,C,E,]2 [A,,C,E,]2 [A,,C,E,]2 | E,,2 [E,A,C]2 [E,^G,B,]2 (!1!E,2 | %18
 !3!G,,4{^F,,G,,} C,2) (!>!C,2 | !3!E,,4{^D,,E,,} !2!F,,2 E,,C,, | %20
 A,,,2) [C,F,]2 [A,,E,]2 [C,F,]2 | [A,,E,]2 [C,F,]2 [A,,E,]2 !2!_A,,>!1!G,, | %22
 C,,2 [C,E,G,]2 [C,E,G,]2 [C,E,G,]2 | G,,2 [G,CE]2 [G,B,D]2 z2 | %24
 A,,,2 [A,,C,E,]2 [A,,C,E,]2 [A,,C,E,]2 | E,,2 [E,A,C]2 [E,^G,B,]2 (!>!!1!E,2 | %26
 !3!G,,4{^F,,G,,} C,2) (!>!C,2 | !3!E,,4{^D,,E,,} !2!F,,2 E,,C,, | %28
 A,,,2) [C,F,]2 [A,,E,]2 [C,F,]2 | [A,,E,]2 [C,F,]2 [A,,E,]2!pp! !1!G,,2 || C,,G,E,G, C,G,E,G, | %31
 D,G,F,G, D,G,F,G, | B,,G,D,G, B,,G,F,G, | C,G,E,G, C,G,E,G, | C,G,E,G, A,,G,E,G, | %35
 [D,F,]2 z2 F,,D,A,,D, | G,,E,C,E, G,,F,B,,F, | G,,B,,D,F, [C,E,]2 z2 |!pp! C,G,E,G, C,G,E,G, | %39
 D,G,F,G, D,G,F,G, | B,,G,D,G, B,,G,F,G, | C,G,E,G, C,G,E,G, | C,G,E,G, A,,G,E,G, | %43
 [D,F,]2 z2 F,,D,A,,D, | G,,E,C,E, G,,F,B,,F, | G,,B,,D,F, [C,E,]2 z2 |: G,,D,B,,D, G,,D,B,,D, | %47
 A,,^F,C,F, A,,F,C,F, | A,,^F,C,F, A,,F,C,F, | B,,^G,D,G, B,,G,D,G, | C,A,E,A, C,E,A,E, | %51
 D,A,F,A, E,CF,C | F,DA,D F,^DA,D | E,B,^G,B, D,B,F,B, | C,G,E,G, C,G,E,G, | !4!D,G,F,G, D,G,F,G, | %56
 B,,G,D,G, B,,G,F,G, | C,G,E,G, C,G,E,G, | C,G,E,G, A,,G,E,G, | [D,F,]2 z2 F,,D,A,,D, | %60
 G,,E,C,E, G,,F,B,,F, | G,,B,,D,F, [C,E,]2 z2 :|!p! !5!!2![A,,E,]2 !3!!1![C,F,]2 [A,,E,]2 [C,F,]2 | %63
 [A,,E,]2 [C,F,]2 [A,,E,]2 [C,F,]2 | [A,,E,]2 [C,F,]2 [A,,E,]2 [C,F,]2 | %65
 [A,,E,]2 [C,F,]2 [A,,E,]2 [C,F,]2 | [A,,E,]2 [C,F,]2 [A,,E,]2 [C,F,]2 | %67
 [A,,E,]2 [C,F,]2 [A,,E,]2 [C,F,]2 | [A,,E,]2 [C,F,]2 [A,,E,]2 [C,F,]2 | %69
 [A,,E,]2 [C,F,]2 [A,,E,]2 [C,F,]2 | [A,,E,]2 [C,F,]2 [A,,E,]2 [C,F,]2 | %71
 [A,,E,]2 [C,F,]2 [A,,E,]2 [C,F,]2 | [A,,E,]2 [C,F,]2 [A,,E,]2 [C,F,]2 | %73
 [A,,E,]2 [C,F,]2 [A,,E,]2 [C,F,]2 | [A,,E,]2 [C,F,]2 [A,,E,]2 [C,F,]2 | %75
 [A,,E,]2 [C,F,]2 [A,,E,]2 u!1!G,,2 | C,,2 [C,E,G,]2 [C,E,G,]2 [C,E,G,]2 | %77
 G,,2 [G,CE]2 [G,B,D]2 z2 | A,,,2 [A,,C,E,]2 [A,,C,E,]2 [A,,C,E,]2 | %79
 E,,2 [E,A,C]2 [E,^G,B,]2 (!1!E,2 | !3!G,,4{^F,,G,,} C,2) (!>!C,2 | %81
 !3!E,,4{^D,,E,,} !2!F,,2 E,,C,, | A,,,2) [C,F,]2 [A,,E,]2 [C,F,]2 | %83
 [A,,E,]2 [C,F,]2 [A,,E,]2 !2!_A,,>!1!G,, | C,,2 [C,E,G,]2 [C,E,G,]2 [C,E,G,]2 | %85
 G,,2 [G,CE]2 [G,B,D]2 z2 | A,,,2 [A,,C,E,]2 [A,,C,E,]2 [A,,C,E,]2 | %87
 E,,2 [E,A,C]2 [E,^G,B,]2 (!>!!1!E,2 | !3!G,,4{^F,,G,,} C,2) (!>!C,2 | %89
 !3!E,,4{^D,,E,,} !2!F,,2 E,,C,, | A,,,2) [C,F,]2 [A,,E,]2 [C,F,]2 | %91
 [A,,E,]2 [C,F,]2 [A,,E,]2 z2 |] %92

